website/static/img/icons/white/docs.svg

<svg fill="none" height="27" viewBox="0 0 22 27" width="22" xmlns="http://www.w3.org/2000/svg"><path d="m13.75 3.25919v3.49081c0 .74558.6156 1.35 1.375 1.35h3.5555zm5.5 7.54081h-4.125c-2.2782 0-4.125-1.81325-4.125-4.05v-4.05h-5.5c-1.51878 0-2.75 1.20883-2.75 2.7v16.2c0 1.4912 1.23122 2.7 2.75 2.7h11c1.5188 0 2.75-1.2088 2.75-2.7zm-13.75-10.8h8.8195l7.6805 7.54081v14.05919c0 2.9823-2.4624 5.4-5.5 5.4h-11c-3.03757 0-5.5-2.4177-5.5-5.4v-16.2c0-2.98234 2.46243-5.4 5.5-5.4zm5.5 18.9c-.7594 0-1.375-.6044-1.375-1.35s.6156-1.35 1.375-1.35 1.375.6044 1.375 1.35-.6156 1.35-1.375 1.35zm-4.125 0c-.75939 0-1.375-.6044-1.375-1.35s.61561-1.35 1.375-1.35 1.375.6044 1.375 1.35-.61561 1.35-1.375 1.35zm8.25 0c-.7594 0-1.375-.6044-1.375-1.35s.6156-1.35 1.375-1.35 1.375.6044 1.375 1.35-.6156 1.35-1.375 1.35z" fill="#fff"/></svg>

<svg width="22" height="27" viewBox="0 0 22 27" fill="none" xmlns="http://www.w3.org/2000/svg">
<path d="M13.75 3.25919V6.75C13.75 7.49558 14.3656 8.1 15.125 8.1H18.6805L13.75 3.25919ZM19.25 10.8H15.125C12.8468 10.8 11 8.98675 11 6.75V2.7H5.5C3.98122 2.7 2.75 3.90883 2.75 5.4V21.6C2.75 23.0912 3.98122 24.3 5.5 24.3H16.5C18.0188 24.3 19.25 23.0912 19.25 21.6V10.8ZM5.5 0H14.3195L22 7.54081V21.6C22 24.5823 19.5376 27 16.5 27H5.5C2.46243 27 0 24.5823 0 21.6V5.4C0 2.41766 2.46243 0 5.5 0ZM11 18.9C10.2406 18.9 9.625 18.2956 9.625 17.55C9.625 16.8044 10.2406 16.2 11 16.2C11.7594 16.2 12.375 16.8044 12.375 17.55C12.375 18.2956 11.7594 18.9 11 18.9ZM6.875 18.9C6.11561 18.9 5.5 18.2956 5.5 17.55C5.5 16.8044 6.11561 16.2 6.875 16.2C7.63439 16.2 8.25 16.8044 8.25 17.55C8.25 18.2956 7.63439 18.9 6.875 18.9ZM15.125 18.9C14.3656 18.9 13.75 18.2956 13.75 17.55C13.75 16.8044 14.3656 16.2 15.125 16.2C15.8844 16.2 16.5 16.8044 16.5 17.55C16.5 18.2956 15.8844 18.9 15.125 18.9Z" fill="white"/>
</svg>
